X:33
T:Molly Put The Kettle On
N:Multiply tied chords with ties inside the chord symbols.
N:Chords in LTH order.  Tie into triplet.  Repeats across
N:line breaks.  Arranged for English Concertina.
M:4/4
L:1/8
S:O'Neill's Music of Ireland
R:Reel
K:G
"Am"cded c[EA][EA]c|"G"Bcdc BG {A}G{F}G |1 "Am"ce{f}ed {cd}cBAG|
"Em"E{F}E{D}EG [E2-A2-][E-A][EB]:|2 "Am"(3cde cA "G"B{c}B{A}BG|
"Em"E{F}E{D}EG [E2-A2-][E-A][EB]|: "Am"cdef "G"(3gag fg|
"Am"{b}aged cA-(3ABA|1"G" (3Bcd ef [B2g2] fg|
"Am"{b}ageg [e2a2] AB:|2"Am" (3cde {f}ed cA-[EA]G|
"Em"E{F}E{D}EG "Am"[E2-A2-][E-A][EB]|]

